build/img/icon/icon_advantages_900.svg

<svg width="102" height="53" viewBox="0 0 102 53" fill="none" xmlns="http://www.w3.org/2000/svg">
<path d="M19.3262 32.4819C17.2461 34.6082 14.9696 35.6714 12.4966 35.6714C8.65999 35.6714 5.63232 34.1344 3.41357 31.0605C1.21794 27.9635 0.120117 23.8381 0.120117 18.6841C0.120117 15.356 0.744141 12.3167 1.99219 9.56641C3.24023 6.79297 4.97363 4.64355 7.19238 3.11816C9.43424 1.59277 11.9303 0.830078 14.6807 0.830078C17.5234 0.830078 20.0542 1.67367 22.2729 3.36084C24.4917 5.04801 26.2135 7.47477 27.4385 10.6411C28.6634 13.7843 29.2759 17.3667 29.2759 21.3882V24.959C29.2759 33.5566 27.3807 40.2822 23.5903 45.1357C19.8231 49.9661 14.4727 52.4276 7.53906 52.52H6.53369V44.061H7.19238C11.029 44.0379 13.9064 43.0441 15.8247 41.0796C17.7661 39.1151 18.9333 36.2492 19.3262 32.4819ZM14.9927 27.9751C16.8879 27.9751 18.3786 26.6808 19.4648 24.0923V19.5854C19.4648 16.2804 19.0142 13.6919 18.1128 11.8198C17.2114 9.92464 16.0443 8.97705 14.6113 8.97705C13.2015 8.97705 12.0575 9.91309 11.1792 11.7852C10.3241 13.6341 9.89648 15.8991 9.89648 18.5801C9.89648 21.4922 10.3472 23.7918 11.2485 25.479C12.1499 27.1431 13.3979 27.9751 14.9927 27.9751ZM65.5386 31.1299C65.5386 38.1097 64.2674 43.4486 61.7251 47.1465C59.2059 50.8444 55.6004 52.6934 50.9087 52.6934C46.2632 52.6934 42.6693 50.9022 40.127 47.3198C37.6077 43.7144 36.3019 38.5604 36.2095 31.8579V22.3242C36.2095 15.3675 37.4691 10.0518 39.9883 6.37695C42.5075 2.67904 46.1245 0.830078 50.8394 0.830078C55.5542 0.830078 59.1712 2.65592 61.6904 6.30762C64.2096 9.95931 65.4924 15.1711 65.5386 21.9429V31.1299ZM55.6929 20.9028C55.6929 16.9276 55.3 13.9461 54.5142 11.9585C53.7284 9.97087 52.5034 8.97705 50.8394 8.97705C47.7192 8.97705 46.1014 12.6172 45.9858 19.8975V32.4819C45.9858 36.5496 46.3787 39.5773 47.1646 41.5649C47.9735 43.5526 49.2215 44.5464 50.9087 44.5464C52.5034 44.5464 53.6821 43.6219 54.4448 41.7729C55.2306 39.9009 55.6466 37.0465 55.6929 33.21V20.9028ZM101.455 31.1299C101.455 38.1097 100.183 43.4486 97.6411 47.1465C95.1219 50.8444 91.5164 52.6934 86.8247 52.6934C82.1792 52.6934 78.5853 50.9022 76.043 47.3198C73.5238 43.7144 72.2179 38.5604 72.1255 31.8579V22.3242C72.1255 15.3675 73.3851 10.0518 75.9043 6.37695C78.4235 2.67904 82.0405 0.830078 86.7554 0.830078C91.4702 0.830078 95.0872 2.65592 97.6064 6.30762C100.126 9.95931 101.408 15.1711 101.455 21.9429V31.1299ZM91.6089 20.9028C91.6089 16.9276 91.216 13.9461 90.4302 11.9585C89.6444 9.97087 88.4194 8.97705 86.7554 8.97705C83.6353 8.97705 82.0174 12.6172 81.9019 19.8975V32.4819C81.9019 36.5496 82.2948 39.5773 83.0806 41.5649C83.8895 43.5526 85.1375 44.5464 86.8247 44.5464C88.4194 44.5464 89.5981 43.6219 90.3608 41.7729C91.1466 39.9009 91.5627 37.0465 91.6089 33.21V20.9028Z" fill="url(#paint0_linear)"/>
<defs>
<linearGradient id="paint0_linear" x1="-3" y1="3" x2="19.4438" y2="41.104" gradientUnits="userSpaceOnUse">
<stop stop-color="#D10A42"/>
<stop offset="1" stop-color="#0041CA"/>
</linearGradient>
</defs>
</svg>

<svg width="102" height="53" fill="none" xmlns="http://www.w3.org/2000/svg"><path d="M19.326 32.482c-2.08 2.126-4.356 3.19-6.83 3.19-3.836 0-6.864-1.538-9.082-4.611C1.218 27.963.12 23.838.12 18.684c0-3.328.624-6.367 1.872-9.118 1.248-2.773 2.982-4.922 5.2-6.448C9.434 1.593 11.93.83 14.681.83c2.842 0 5.373.844 7.592 2.53 2.219 1.688 3.94 4.115 5.166 7.281 1.224 3.143 1.837 6.726 1.837 10.747v3.571c0 8.598-1.895 15.323-5.686 20.177-3.767 4.83-9.117 7.292-16.05 7.384H6.533v-8.459h.658c3.837-.023 6.714-1.017 8.633-2.981 1.941-1.965 3.108-4.83 3.501-8.598zm-4.333-4.507c1.895 0 3.386-1.294 4.472-3.883v-4.507c0-3.305-.45-5.893-1.352-7.765-.902-1.895-2.069-2.843-3.502-2.843-1.41 0-2.554.936-3.432 2.808-.855 1.85-1.283 4.114-1.283 6.795 0 2.912.451 5.212 1.352 6.899.902 1.664 2.15 2.496 3.745 2.496zm50.546 3.155c0 6.98-1.272 12.319-3.814 16.017-2.52 3.697-6.125 5.546-10.816 5.546-4.646 0-8.24-1.79-10.782-5.373-2.52-3.606-3.825-8.76-3.918-15.462v-9.534c0-6.957 1.26-12.272 3.78-15.947C42.507 2.679 46.124.83 50.838.83c4.715 0 8.332 1.826 10.851 5.478 2.52 3.651 3.802 8.863 3.849 15.635v9.187zm-9.846-10.227c0-3.975-.393-6.957-1.179-8.944-.786-1.988-2.01-2.982-3.675-2.982-3.12 0-4.738 3.64-4.853 10.92v12.585c0 4.068.393 7.095 1.179 9.083.809 1.988 2.056 2.981 3.744 2.981 1.594 0 2.773-.924 3.536-2.773.786-1.872 1.202-4.727 1.248-8.563V20.903zm45.762 10.227c0 6.98-1.272 12.319-3.814 16.017-2.52 3.697-6.125 5.546-10.816 5.546-4.646 0-8.24-1.79-10.782-5.373-2.52-3.606-3.825-8.76-3.918-15.462v-9.534c0-6.957 1.26-12.272 3.78-15.947C78.423 2.679 82.04.83 86.754.83s8.332 1.826 10.851 5.478c2.52 3.651 3.802 8.863 3.849 15.635v9.187zm-9.846-10.227c0-3.975-.393-6.957-1.179-8.944-.786-1.988-2.01-2.982-3.675-2.982-3.12 0-4.738 3.64-4.853 10.92v12.585c0 4.068.393 7.095 1.179 9.083.808 1.988 2.056 2.981 3.744 2.981 1.594 0 2.773-.924 3.536-2.773.786-1.872 1.202-4.727 1.248-8.563V20.903z" fill="url(#paint0_linear)"/><defs><linearGradient id="paint0_linear" x1="-3" y1="3" x2="19.444" y2="41.104" gradientUnits="userSpaceOnUse"><stop stop-color="#D10A42"/><stop offset="1" stop-color="#0041CA"/></linearGradient></defs></svg>
